X: 24
T: Frank's Reel
C: John McCusker
R: reel
Z: 2006 John Chambers <jc:trillian.mit.edu>
M: C
L: 1/8
K: A
E2 |\
"A"AcBA "D"F2 AF | "A"EFAB cABc |\
"D"~d3f "A"eAce | "F#m"f{g}aec "E"B{c}dcB |
"A"AcBA "D"F2 AF | "A"EFAB cABc |\
"D"~d3f "A"ecAc | "E"BAGB [1 "A"A2 :|2 "A"Ae"(E7)"fg ||
|:\
"A"aAAg "D"AAfA | "A"effe cABc |\
"D"~d3f "A"ecAc |[1 "Bm"Bcde "E7"fefg :|[2 "E"BAGB "A"Ae"(E7)"fg ||
[|\
"A"aAAg "D"AAfA | "A"effe cABc |\
"D"~d3f "A"eAce | "F#m"f{g}aec "E"B{c}dcB |
|\
"A"AcBA "D"F2 AF | "A"EFAB cABc |\
"D"~d3f "A"ecAc | "E"BAGB "A"A2 |]

%%sep 1 1 500

